X: 4432
T: TIDDLEDIWINKS POLKA
R: Polka
%R: polka
B: James Kerr "Merry Melodies" v.4 p.48 #432
Z: 2016 John Chambers <jc:trillian.mit.edu>
N: Removed redundant final D in the 1st strain's 1st ending.
M: 2/4
L: 1/16
K: G
D2 |\
GFGA BABc | d2g2d3B | c2A2 d3F |[1 AGFE D2 :|[2 G2G2G2 H|:\
(FG) |\
A2f2 fefg | f2e2e2 (EF) | G2e2 e^def | e2=d2d2 (FG) |\
A2f2 fefg | f2e2g2 (fe) |
d^cBA ^GABc | d2f2"_D.C."d2 ::[K:=f]\
[K:C] !p!G2 |\
c6 G2 | c6 G2 | cBcd e2a2 | g2e2d2c2 |\
[1,3 d6 A2 | d6 A2 | d^cde f2d2 | B2d2A2 :|\
[2,4 A^GAB cBcd | e2a2g2f2 | e2G2e3d | c2e2"_D.C."c2 |]

%%sep 1 1 500
%%sep 1 1 500

